symbols/web/phonelink_ring/materialsymbolsrounded/phonelink_ring_wght500grad200fill1_40px.svg

<svg xmlns="http://www.w3.org/2000/svg" height="40" width="40"><path d="M34.292 27.917q-.459-.459-.48-1.125-.02-.667.396-1.209.875-1.208 1.375-2.645.5-1.438.5-2.98 0-1.5-.5-2.958-.5-1.458-1.416-2.625-.459-.542-.459-1.208 0-.667.459-1.125.541-.542 1.291-.521.75.021 1.209.562 1.333 1.709 2.062 3.73.729 2.02.729 4.145 0 2.209-.729 4.209-.729 2-2.062 3.708-.417.542-1.146.563-.729.02-1.229-.521Zm-4.625-4.667q-.292-.292-.355-.75-.062-.458.105-1 .25-.333.375-.75t.125-.833q0-.417-.125-.834-.125-.416-.375-.75-.167-.583-.125-1.021.041-.437.416-.77.542-.542 1.459-.438.916.104 1.208.813.417.708.625 1.437.208.729.208 1.521 0 .792-.208 1.563-.208.77-.625 1.437-.25.75-1.208.854-.959.104-1.5-.479ZM11.125 39.333q-1.542 0-2.625-1.083t-1.083-2.625V4.375q0-1.542 1.083-2.625T11.125.667h17.75q1.542 0 2.625 1.083t1.083 2.625v6.083h-3.708V8.917h-17.75v22.166h17.75v-1.541h3.708v6.083q0 1.542-1.083 2.625t-2.625 1.083Z"/></svg>

<svg xmlns="http://www.w3.org/2000/svg" height="40" width="40"><path d="M34.292 27.917Q33.833 27.458 33.812 26.792Q33.792 26.125 34.208 25.583Q35.083 24.375 35.583 22.938Q36.083 21.5 36.083 19.958Q36.083 18.458 35.583 17Q35.083 15.542 34.167 14.375Q33.708 13.833 33.708 13.167Q33.708 12.5 34.167 12.042Q34.708 11.5 35.458 11.521Q36.208 11.542 36.667 12.083Q38 13.792 38.729 15.813Q39.458 17.833 39.458 19.958Q39.458 22.167 38.729 24.167Q38 26.167 36.667 27.875Q36.25 28.417 35.521 28.438Q34.792 28.458 34.292 27.917ZM29.667 23.25Q29.375 22.958 29.312 22.5Q29.25 22.042 29.417 21.5Q29.667 21.167 29.792 20.75Q29.917 20.333 29.917 19.917Q29.917 19.5 29.792 19.083Q29.667 18.667 29.417 18.333Q29.25 17.75 29.292 17.312Q29.333 16.875 29.708 16.542Q30.25 16 31.167 16.104Q32.083 16.208 32.375 16.917Q32.792 17.625 33 18.354Q33.208 19.083 33.208 19.875Q33.208 20.667 33 21.438Q32.792 22.208 32.375 22.875Q32.125 23.625 31.167 23.729Q30.208 23.833 29.667 23.25ZM11.125 39.333Q9.583 39.333 8.5 38.25Q7.417 37.167 7.417 35.625V4.375Q7.417 2.833 8.5 1.75Q9.583 0.667 11.125 0.667H28.875Q30.417 0.667 31.5 1.75Q32.583 2.833 32.583 4.375V10.458H28.875V8.917H11.125V31.083H28.875V29.542H32.583V35.625Q32.583 37.167 31.5 38.25Q30.417 39.333 28.875 39.333Z"/></svg>
